X: 20953
M: 2/4
L: 1/16
K: F
V: 1 name="6"
c2A2f2A2 | c2A2f2A2 | c2A2 f2ef | gfed c2AB |\
c2A2f2A2 | c2A2f2A2 | dBgf ecde | f2a2"^D.C."f2 |]
K:Fm
cB |\


